X:1528
T:Devil's Dream
T:Deil Among the Tailors
O:england
R:Breakdown
M:2/4
L:1/16
K:A
e2|"A"agae agae|agae fedc|"E7"dfBf dfBf|dfBf agfe|
"A"agae agae|agae fedc|"D"defg "E7"afed|"A"c2A2 A2:|
|:e2|"A"ceAe ceAe|ceAe "Edim"fedc|"E7"dfBf "D"dfBf|"E7"dfBf agfe|
"A"ceAe ceAe|ceAe fedc|"E7"defg afed|"A"c2A2 A2:|]


